X:283
T: Zwischen Basel und dem Rheinstrom (3-85), S.235
N: P1058
O: Lothringen
S: PINCK, Louis: Verklingende Weisen, Bd3, Metz 1933]
R: Liebe, Abschied]
M: 3/4
L: 1/16
K: G
D3D | G4G4A3A | B4B4
G3A | B4d4c2e2 | d8z4 |
d8z2d2 | e3cc4e4 | d4
G4G3B | d4d4c2A2 | B4d4z4 |
d8z2g2 | e3cc4e4 | d4
G4G3B | d4d4c4 | B8

@@@ Tune index: 7833
